assets/images/script/r-4-bot.svg

<svg fill="none" height="241" viewBox="0 0 221 241" width="221" xmlns="http://www.w3.org/2000/svg"><path d="m142.953 6.78179c2.167-2.47707-6.07-1.37032-7.366-1.35282-20.797.28105-41.5421 1.35282-62.3795 1.35282-20.5942 0-41.1525.56051-61.6283-1.95407-3.84464-.47215-8.99537-2.41762-7.96657-1.50313 33.67317 29.93171 47.82797 59.11901 59.75567 100.75341 8.3948 29.303 16.2047 59.273 18.8643 89.737 1.1024 12.628 5.7602 37.407-10.2213 43.349-10.9393 4.067-15.6728-2.69-16.6847-13.378-2.7757-29.318 11.9937-57.679 24.4258-83.332 9.9396-20.51 22.7206-39.671 42.6886-51.5575 13.933-8.2935 34.846-16.3558 46.973-1.0522 9.366 11.8193 15.59 28.8747 17.286 43.7407 1.181 10.348-4.971 25.242-18.113 17.512-13.314-7.832-1.572-33.821 4.961-42.013 10.761-13.4945 27.568-23.7823 44.868-22.5466" stroke="#000" stroke-linecap="round" stroke-width="5"/></svg>

<svg width="221" height="241" viewBox="0 0 221 241" fill="none" xmlns="http://www.w3.org/2000/svg">
<path d="M142.953 6.78179C145.12 4.30472 136.883 5.41147 135.587 5.42897C114.79 5.71002 94.0449 6.78179 73.2075 6.78179C52.6133 6.78179 32.055 7.3423 11.5792 4.82772C7.73456 4.35557 2.58383 2.4101 3.61263 3.32459C37.2858 33.2563 51.4406 62.4436 63.3683 104.078C71.7631 133.381 79.573 163.351 82.2326 193.815C83.335 206.443 87.9928 231.222 72.0113 237.164C61.072 241.231 56.3385 234.474 55.3266 223.786C52.5509 194.468 67.3203 166.107 79.7524 140.454C89.692 119.944 102.473 100.783 122.441 88.8965C136.374 80.603 157.287 72.5407 169.414 87.8443C178.78 99.6636 185.004 116.719 186.7 131.585C187.881 141.933 181.729 156.827 168.587 149.097C155.273 141.265 167.015 115.276 173.548 107.084C184.309 93.5895 201.116 83.3017 218.416 84.5374" stroke="black" stroke-width="5" stroke-linecap="round"/>
</svg>
